X:1
T:Ecco'l mio vivo sole
T:Lodovico Agostini
T:Ecco'l mio vivo sole
C:Lodovico Agostini
%%score [ 1 2 3 4 ]
L:1/8
Q:1/4=68
M:4/4
K:C
V:1 alto1 nm="Soprano" snm="S"
V:2 alto nm="Alto" snm="A"
V:3 tenor nm="Tenor" snm="T"
V:4 bass nm="Bass" snm="B"
V:1
 z8 |[K:D][K:treble] z4 B4 | A2 F2 GFGA | B2 F2 A4 | G4 z4 | z2 B2 A2 F2 | G2 E2 B4 | ^G4 z2 B2- | %8
w: |Ec-|co'l mio vi- * * *|* vo so-|le,|Ec- co'l mio|vi- vo so-|le, An-|
 BB G2 G2 F2 | F4 F4 | z4 B4- | B2 A2 G2 F2- | FF G2 A3 A | B2 d3 c B2- | BA/G/ A2 B4 | %15
w: * zi mio chia- ra|lu- na,|Cin-|* ta d'ar- den-|* ti rai tut- ta|ri- lu- * *|* * * * ce,|
 z2 B2 B2 B2 | G2 E4 e2- | ed/c/ d2 e4 | z8 | z4 z2 B2- | B2 B2 B4 | d2 A2 B3 A | G4 F4 | G6 G2 | %24
w: E chia- ra|piu del so-|* * * * le,||Bian-|* ca piu|de la lu- *|* na,|Mo- stra|
 A2 A4 A2 | B3 A G4 | F2 E3 D/C/ D2 | E2 B2 B2 ^A2 | B3 B B2 =c2 | B4 d4 | B3 B G2 A2 | F4 E2 B2 | %32
w: be- ni- gna|sua se- re-|na lu- * * *|ce, Ne piu quel|sol, Ne piu quel|sol ne|quel- la lu- na|lu- ce, Ne|
 B2 ^A2 B3 B | B2 =c2 B2 d2 | B3 B G2 A2 | B4 B4 | G8 | F4 F4 | ^G3 A B4 | B6 A2 | F3 G A4 | %41
w: piu quel sol, Ne|piu quel sol ne|quel- la lu- na|lu- ce,|Ma|la mia|chia- ra e bel-|la, Spa-|rir fa il sol|
 z2 B2 B4 | ^G4 z2 F2 | ^G4 A4 | B8 | ^A8 | z4 G4 | F4 F4 | ^G3 A B4 | B6 A2 | F3 G A4 | z2 B2 B4 | %52
w: la lu-|na e|qual sia|stel-|la,|Ma|la mia|chia- ra e bel-|la, Spa-|rir fa il sol|la lu-|
 ^G4 z2 F2 | ^G2 G2 A3 =G | F4 F2 F2 | ^G3 A B2 B2 | =c3 B A4 | ^G8 |] %58
w: na e|qual sia stel- *|* la, e|qual _ _ sia|stel- * *|la.|
V:2
 z8 |[K:D][K:treble] E4 D2 B,2 | C2 D2 E4 | ^D4 z2 C2 | B,2 D2 E2 E2 | F4 E2 D2 | B,2 C2 D2 D2 | %7
w: |Ec- co'l mio|vi- vo so-|le, Ec-|co'l mio vi- vo|so- le, Ec-|co'l mio vi- vo|
 E4 ^D4 | z2 E3 E D2 | C2 C2 D4 | C2 F4 E2 | D2 C2 B,2 A,2 | D3 E F2 F2- | F2 F2 G3 F | %14
w: so- le,|An- zi mio|chia- ra lu-|na, Cin- ta|d'ar- den- ti rai|tut- ta ri- lu-|* ce, tut- ta|
 E2 E3 D/C/ D2 | E2 E2 D2 E2 | E2 G2 A4 | F4 z2 G2 | F2 G2 E2 A2 | A4 ^G4 | z2 ^G4 G2 | %21
w: ri- lu- * * *|ce, E chia- ra|piu del so-|le, E|chia- ra piu del|so- le,|Bian- ca|
 A2 F2 F2 FE | DC D4 D2 | E6 E2 | E4 F4 | F4 B,3 C | D2 C2 B,4 | B,2 G2 F2 E2 | F3 F ^G2 A2 | %29
w: piu de la lu- *|* * * na,|Mo- stra|be- ni-|gna sua se-|re- na lu-|ce, Ne piu quel|sol, Ne piu quel|
 G4 A4 | G3 F E2 E2 | E2 ^D2 E2 G2 | F2 E2 F3 F | ^G2 A2 =G2 A2 | G3 F E2 E2 | G4 F4 | z4 E4 | %37
w: sol ne|quel- la lu- na|lu- * ce, Ne|piu quel sol, Ne|piu quel sol ne|quel- la lu- na|lu- ce,|Ma|
 D4 C4 | E3 F G4 | G2 D2 F3 G | A4 z2 E2 | G4 F4 | z2 E2 ^D4 | E4 F4- | F2 E2 E2 DE | F8 | %46
w: la mia|chia- ra e bel-|la, Spa- rir fa il|sol la|lu- na|e qual|sia stel-|||
 F4 z2 E2 | D4 C4 | E3 F G4 | G2 D2 F3 G | A4 z2 E2 | G4 F4 | z2 E2 D4 | B,4 E4- | E2 DC D4 | %55
w: la, Ma|la mia|chia- ra e bel-|la, Spa- rir fa il|sol la|lu- na|e qual|sia stel-||
 E4 ^D2 E2- | E2 E2 E4 | E8 |] %58
w: la, e qual|_ sia stel-|la.|
V:3
 z8 |[K:D][K:treble-8] z8 | z8 | B4 A2 F2 | GFGA B2 c2 | d4 c2 A2 | G2 A2 B2 B2 | E4 B4 | %8
w: |||Ec- co'l mio|vi- * * * * vo|so- le, Ec-|co'l mio vi- vo|so- le,|
 z2 B3 B B2 | ^A2 A2 B4 | F4 z4 | f4 d3 d | A2 B2 c4 | dcBA G2 G2 | =c4 B4 | E4 z4 | z8 | %17
w: An- zi mio|chia- ra lu-|na,|Cin- ta d'ar-|den- ti rai|tut- * * * * ta|ri- lu-|ce,||
 z2 B2 B2 B2 | d4 c2 e2- | ed/c/ d2 e4 | e6 e2 | f2 d4 c2 | B4 A4 | =c8 | =c4 A2 d2- | d2 d2 e3 e | %26
w: E chia- ra|piu del so-|* * * * le,|Bian- ca|piu de la|lu- na,|Mo-|stra be- ni-|* gna sua se-|
 A2 A2 F4 | E2 e2 d2 c2 | ^d3 d e2 e2 | e4 f4 | e3 d =c2 c2 | B4 B2 e2 | d2 c2 ^d3 d | %33
w: re- na lu-|ce, Ne piu quel|sol, Ne piu quel|sol ne|quel- la lu- na|lu- ce, Ne|piu quel sol, Ne|
 e2 e2 e2 f2 | e3 d =c4 | B2 e3 ^ddc/d/ | e4 B4 | z4 ^A4 | B4 B2 d2- | dc B2 c4 | z2 A2 c3 d | %41
w: piu quel sol ne|quel- la lu-|na lu- * * * *|* ce,|Ma|la mia chia-|* ra e bel- la,|Spa- rir fa il|
 e4 z2 d2 | B4 B4 | B4 d3 c | B4 B4 | c8 | B8 | z4 ^A4 | B4 B2 d2- | dc B2 c4 | z2 A2 c3 d | %51
w: sol la|lu- na|e qual _|_ sia|stel-|la,|Ma|la mia chia-|* ra e bel- la,|Spa- rir fa il|
 e4 z2 d2 | B4 B4 | z2 B2 =c2 B2 | B4 B4 | E4 F2 ^G2 | A3 B =c4 | B8 |] %58
w: sol la|lu- na|e qual sia|stel- la,|e qual sia|stel- * *|la.|
V:4
 z8 |[K:D] z8 | z8 | z8 | z4 E,4 | D,2 B,,2 C,2 D,2 | E,4 B,,4 | z4 B,,3 B,, | B,,2 E,4 B,,2 | %9
w: ||||Ec-|co'l mio vi- vo|so- le,|An- zi|mio chia- ra|
 F,4 B,,2 B,2- | B,2 A,2 G,4 | F,3 F, G,2 D,2- | D,D, G,2 F,4 | B,,4 z4 | z4 z2 B,2 | %15
w: lu- na, Cin-|* ta d'ar-|den- ti rai tut-|* ta ri- lu-|ce,|E|
 B,2 B,2 G,2 E,2 | =C3 B, A,4 | B,2 B,,2 E,3 E, | D,2 G,2 A,3 G, | F,4 E,4 | z2 E,4 E,2 | %21
w: chia- ra piu del|so- * *|le, E chia- ra|piu del so- *|* le,|Bian- ca|
 D,4 B,,2 F,2 | G,4 D,4 | =C,6 C,2 | A,,4 D,4 | B,,4 E,3 E, | D,2 A,,2 B,,4 | E,4 z4 | %28
w: piu de la|lu- na,|Mo- stra|be- ni-|gna sua se-|re- na lu-|ce,|
 B,,4 E,2 A,,2 | E,4 D,4 | E,3 B,, =C,2 A,,2 | B,,4 E,4 | z4 B,,4 | E,2 A,,2 E,2 D,2 | %34
w: Ne piu quel|sol ne|quel- la lu- na|lu- ce,|Ne|piu quel sol ne|
 E,3 B,, =C,2 A,,2 | E,4 B,,4 | E,8 | B,4 F,4 | E,6 F,2 | G,4 F,4 | D,2 F,3 G, A,2 | z2 E,2 B,4 | %42
w: quel- la lu- na|lu- ce,|Ma|la mia|chia- ra e|bel- la,|Spa- rir fa il sol|la lu-|
 E,4 z2 B,,2 | E,4 D,4 | G,8 | F,8 | z4 E,4 | B,4 F,4 | E,6 F,2 | G,4 F,4 | D,2 F,3 G, A,2 | %51
w: na e|qual sia|stel-|la,|Ma|la mia|chia- ra e|bel- la,|Spa- rir fa il sol|
 z2 E,2 B,4 | E,4 z4 | E,4 A,,2 E,2 | B,,4 B,,4 | z2 E,2 B,,2 E,2 | A,,8 | E,8 |] %58
w: la lu-|na|e qual sia|stel- la,|e qual sia|stel-|la.|

